X: 37465
T: Sliabh Russell
R: jig
M: 6/8
K: Adorian
|:~e2A Bcd|e2a ged|edB cBA|BAG ABd|
~e2A Bcd|e2a ged|edB cBA|BAG ~A3:|
|:e2a efg|agf ged|~e2a efg|fed ~g3|
e2a efg|agf ged|edB cBA|BAG ~A3:|

